usr/share/icons/biglinux-icons-material/scalable/mimetypes/application-vnd.ms-powerpoint.svg

<svg width="24" height="24" viewBox="0 0 24 24" fill="none" xmlns="http://www.w3.org/2000/svg">
<rect x="1" y="1" width="22" height="22" rx="6.6" fill="url(#paint0_radial_1_165)"/>
<path d="M12.5869 5C10.0586 5.45024 7.52901 6.04758 5.00074 6.48957C5.00074 10.3355 4.99907 14.1831 5.00074 18.0308C7.51588 18.4711 10.0322 19.0586 12.5422 19.5171H13.2956V5.00002L12.5869 5ZM8.78276 9.57134C9.28157 9.56076 9.7602 9.63254 10.149 9.98425C10.8939 10.8881 10.6969 12.5505 9.5926 13.0916C9.20029 13.292 8.75089 13.2646 8.32403 13.2508C8.32232 13.9265 8.32051 14.6021 8.32227 15.2778C7.98009 15.2484 7.63639 15.2191 7.29421 15.1915C7.27873 13.3458 7.27501 11.5837 7.29573 9.73795C7.78238 9.67732 8.28396 9.58192 8.78276 9.57134ZM8.72528 10.5728C8.58917 10.5693 8.44992 10.5816 8.32225 10.5875C8.31716 11.1682 8.31382 11.747 8.3501 12.326C8.694 12.2845 9.13989 12.3191 9.33691 11.9632C9.50108 11.6141 9.51139 11.168 9.31437 10.8293C9.17072 10.6295 8.95214 10.5789 8.72528 10.5728Z" fill="white"/>
<path d="M13.8156 7.07384V8.79708C14.0586 8.74492 14.3226 8.64678 14.593 8.63052V10.9624H16.9106C16.8283 11.6699 16.5129 12.397 15.8891 12.7667C15.2774 13.178 14.4999 13.1833 13.8155 12.9707C13.8172 13.3095 13.8138 13.9938 13.8155 14.3325H17.963V14.8509H13.8155V15.8879H17.963V16.4063H13.8155V17.9618H19V7.07405L13.8156 7.07384ZM15.1115 8.31634C16.2138 8.4305 17.1254 9.34422 17.2453 10.4439H15.1115V8.31634Z" fill="white"/>
<defs>
<radialGradient id="paint0_radial_1_165" cx="0" cy="0" r="1" gradientUnits="userSpaceOnUse" gradientTransform="translate(17.5 1) rotate(116.565) scale(24.5967)">
<stop stop-color="#EC8B74"/>
<stop offset="1" stop-color="#CD4728"/>
</radialGradient>
</defs>
</svg>

<svg xmlns="http://www.w3.org/2000/svg" width="24" height="24" fill="none"><rect width="22" height="22" x="1" y="1" fill="url(#a)" rx="6.6"/><path fill="#fff" d="M12.587 5C10.059 5.45 7.529 6.048 5 6.49c0 3.845-.002 7.693 0 11.54 2.515.441 5.031 1.029 7.541 1.487h.754V5h-.71ZM8.783 9.571c.499-.01.977.062 1.366.413.745.904.548 2.566-.556 3.108-.393.2-.842.173-1.269.159-.002.676-.003 1.351-.002 2.027-.342-.03-.686-.059-1.028-.087-.015-1.845-.019-3.607.002-5.453.486-.06.988-.156 1.487-.167Zm-.058 1.002c-.136-.004-.275.009-.403.014-.005.581-.008 1.16.028 1.739.344-.042.79-.007.987-.363.164-.349.174-.795-.023-1.134-.143-.2-.362-.25-.589-.256ZM13.816 7.074v1.723c.243-.052.507-.15.777-.166v2.331h2.318c-.083.708-.398 1.435-1.022 1.805-.612.411-1.39.416-2.073.204.001.338-.002 1.023 0 1.361h4.147v.519h-4.148v1.037h4.148v.518h-4.148v1.556H19V7.074h-5.184Zm1.295 1.242c1.103.114 2.014 1.028 2.134 2.128h-2.134V8.316Z"/><defs><radialGradient id="a" cx="0" cy="0" r="1" gradientTransform="rotate(116.565 8.441 5.908) scale(24.5967)" gradientUnits="userSpaceOnUse"><stop stop-color="#EC8B74"/><stop offset="1" stop-color="#CD4728"/></radialGradient></defs></svg>
